<?xml version="1.0" encoding="UTF-8"?>
<map version="1.10" tiledversion="1.12.2" orientation="orthogonal" renderorder="right-down" width="25" height="13" tilewidth="32" tileheight="32" infinite="0" nextlayerid="3" nextobjectid="8">
 <tileset firstgid="1" name="tileset" tilewidth="32" tileheight="32" tilecount="8" columns="8">
  <image source="../tileset.png" width="256" height="32"/>
  <tile id="0">
   <properties>
    <property name="colision" type="bool" value="true"/>
   </properties>
  </tile>
  <tile id="1">
   <properties>
    <property name="colision" type="bool" value="true"/>
   </properties>
  </tile>
  <tile id="2">
   <properties>
    <property name="colision" type="bool" value="true"/>
   </properties>
  </tile>
  <tile id="3">
   <properties>
    <property name="colision" type="bool" value="true"/>
   </properties>
  </tile>
 </tileset>
 <layer id="1" name="tiles" width="25" height="13">
  <data encoding="csv">
0,0,0,0,0,0,0,0,0,0,0,0,0,0,0,0,0,0,0,0,0,0,0,0,0,
0,0,0,0,0,0,0,0,0,0,0,0,0,0,0,0,0,0,0,0,0,0,0,0,0,
0,0,0,0,0,0,0,0,0,0,0,0,0,0,0,0,0,0,0,0,0,3,1,1,1,
1,1,1,2,0,0,0,0,0,0,0,0,0,0,0,0,0,0,0,0,0,0,0,0,0,
0,0,0,0,0,0,0,0,0,0,0,0,3,1,1,2,0,0,0,0,0,0,0,0,0,
0,0,0,0,0,0,0,0,0,0,0,0,0,0,0,0,0,0,0,0,0,0,0,0,0,
0,0,0,0,0,0,3,1,1,2,0,0,0,0,0,0,0,0,0,0,0,0,0,0,0,
0,0,0,0,0,0,0,0,0,0,0,0,0,0,0,3,1,1,2,0,0,0,0,0,0,
0,0,0,0,0,0,0,0,0,0,0,0,0,0,0,0,0,0,0,0,0,0,0,0,0,
1,1,1,2,0,0,0,0,0,0,0,0,0,0,0,0,0,0,0,0,0,0,3,1,1,
0,0,0,0,0,0,0,0,0,0,0,0,0,0,0,0,0,0,0,0,0,0,0,5,6,
0,0,0,0,0,0,0,0,0,0,0,0,0,0,0,0,0,0,0,0,0,0,0,7,8,
1,1,1,1,1,1,1,1,1,1,1,1,1,1,1,1,1,1,1,1,1,1,1,1,1
</data>
 </layer>
 <objectgroup id="2" name="objetos">
  <object id="1" name="npc" x="768" y="64">
   <point/>
  </object>
  <object id="2" name="npc" x="768" y="288">
   <point/>
  </object>
  <object id="3" name="npc" x="32" y="96">
   <point/>
  </object>
  <object id="4" name="npc" x="32" y="288">
   <point/>
  </object>
  <object id="5" name="npc" x="448" y="128">
   <point/>
  </object>
  <object id="6" name="meta" x="768" y="384">
   <point/>
  </object>
  <object id="7" name="jugador" x="32" y="384">
   <point/>
  </object>
 </objectgroup>
</map>
